X:1
T:Title
%%score { ( 1 3 4 ) | ( 2 5 ) }
L:1/8
Q:1/4=100
M:4/4
K:Ab
V:1 treble nm="Grand Piano"
V:3 treble 
V:4 treble 
V:2 bass 
V:5 bass 
V:1
 [CE]>[DF] [CE]>[B,D] [A,C]>[CE] [CA]>[DB] | [Ec]2 [Fd]2 [Ec]4 | E>F G>A B>=A B>_c | c6 z2 | %4
w: Ira~B.~Wilson * * * * * * *||||
 d>e d>c B2 E2 | c>d c>B A4 | [=DB]>[Dc] [DB]>[Dc] [DB]2 [DF]2 | A2 G2 F2 E2 | %8
w: ||||
 [CE]2 [CE]2 [Fd]2 [Ec]2 | z4 [=DB]4 | D>E F>G [Ec]2 [DB]2 | [CE]6 z2 | %12
w: ||||
 [Ec]>[Ec] [=Ec]>[Ec] [Fc]>[Fc] [A=d]>[Ad] | [Ae]2 [Gc]2 [FA]4 | %14
w: ||
[M:9/8] [GB]>[FA][EG]- [EG]/[DF]/ [CE]2 [Ee]3 |[M:4/4] [=DA]2 [_DB]2 [CA]4 |] %16
w: ||
V:2
 [A,,A,]>[A,,A,] [A,,A,]>[A,,E,] [A,,E,]>[A,,A,] [A,,A,]>[A,,A,] | [A,,A,]2 [A,,A,]2 [A,,A,]4 | %2
 [E,G,D]>[E,A,D] [E,B,D]>[E,A,D] [E,G,D]>[E,G,C] [E,G,D]>[E,G,=D] | [A,,A,]6 z2 | %4
 [E,B,E]>[E,CE] [E,B,E]>[E,A,E] [E,G,D]2 [E,G,]2 | [A,E]>[A,F][K:bass] [E,G,E]>[=E,G,D] [F,A,C]4 | %6
 [B,,A,]>[B,,A,] [B,,A,]>[B,,A,] [B,,F,]2 [B,,B,]2 | [E,B,D]2 [E,B,D]2 [E,D]2- [E,G,D]2 | %8
 z z/ =D/ z z/ A/ F,,2 [F,=A,]2 | [B,,A,]2 [B,,A,]2 [B,,A,]2 B,,2 | E,,2 [E,G,D]2 E,,2 [E,G,]2 | %11
 A,,>E, F,>G, F,2 E,2 | [A,,A,]>[A,,A,] [C,G,]>[C,G,] [F,A,]>[F,A,] [=E,B,]>[E,B,] | %13
 [E,C]2 [=E,C]2 [F,C]4 |[M:9/8] [D,D]>[D,D][D,A,]- [D,A,]/[D,A,]/ [E,A,]2 [C,A,]3 | %15
[M:4/4] [F,B,]2 [E,G,]2 [A,,E,]4 |] %16
V:3
 x8 | x8 | x8 | .E2 F>G B2 A2 | x8 | x8 | x8 | x8 | x8 | [=DF]2 [Dc]2 z2 A,2 | x8 | x8 | x8 | x8 | %14
[M:9/8] x9 |[M:4/4] x8 |] %16
V:4
 x8 | x8 | x8 | z E3- E2 z2 | x8 | x8 | x8 | x8 | x8 | x8 | x8 | x8 | x8 | x8 |[M:9/8] x9 | %15
[M:4/4] x8 |] %16
V:5
 x8 | x8 | x8 | x8 | x8 | x2[K:bass] x6 | x8 | z4 A,2 z2 | A,,2 _G,,2 z4 | x8 | x8 | x8 | x8 | x8 | %14
[M:9/8] x9 |[M:4/4] x8 |] %16

